packages/icons/src/assets/microphone.svg

<svg width="16" height="16" viewBox="0 0 16 16" fill="none" xmlns="http://www.w3.org/2000/svg">
<path d="M3.75977 7.60645C3.75977 8.31006 3.87513 9.00497 4.09668 9.65039C4.31827 10.2958 4.64049 10.8761 5.04102 11.3594C5.44147 11.8425 5.91109 12.2183 6.41797 12.4717C6.92423 12.7246 7.46164 12.8525 8 12.8525C8.53841 12.8525 9.07574 12.7247 9.58203 12.4717C10.0889 12.2183 10.5585 11.8425 10.959 11.3594C11.3595 10.8761 11.6817 10.2957 11.9033 9.65039C12.1248 9.00501 12.2402 8.31001 12.2402 7.60645H13.5C13.5 8.4459 13.3626 9.27937 13.0947 10.0596C12.8269 10.8397 12.4315 11.5553 11.9277 12.1631C11.4239 12.7709 10.8191 13.2605 10.1445 13.5977C9.66204 13.8388 9.15192 13.9964 8.62988 14.0674V16H7.37012V14.0674C6.84783 13.9964 6.3372 13.8389 5.85449 13.5977C5.1799 13.2605 4.57513 12.771 4.07129 12.1631C3.56754 11.5553 3.17214 10.8397 2.9043 10.0596C2.63645 9.27937 2.50001 8.4459 2.5 7.60645H3.75977ZM8 0C9.68018 0.000302815 10.867 1.57659 10.8672 3.28516V7.71191C10.867 9.42047 9.68017 10.9968 8 10.9971C6.31972 10.9969 5.13303 9.42054 5.13281 7.71191V3.28516C5.13302 1.57653 6.31972 0.000182707 8 0ZM8 1.25977C7.2093 1.25996 6.39278 2.06113 6.39258 3.28516V7.71191C6.39278 8.93593 7.2093 9.73711 8 9.7373C8.79064 9.73698 9.60722 8.93583 9.60742 7.71191V3.28516C9.60722 2.06123 8.79064 1.26009 8 1.25977Z" />
</svg>

<svg xmlns="http://www.w3.org/2000/svg" width="16" height="16" viewBox="0 0 16 16"><path d="M3.76 7.606c0 .704.115 1.399.337 2.044.221.646.543 1.226.944 1.71.4.482.87.858 1.377 1.112a3.5 3.5 0 0 0 1.582.38c.538 0 1.076-.127 1.582-.38.507-.254.976-.63 1.377-1.113a5.5 5.5 0 0 0 .944-1.709c.222-.645.337-1.34.337-2.044h1.26c0 .84-.137 1.673-.405 2.454a6.7 6.7 0 0 1-1.167 2.103 5.55 5.55 0 0 1-1.783 1.435 4.9 4.9 0 0 1-1.515.47V16H7.37v-1.933a4.9 4.9 0 0 1-1.516-.47 5.55 5.55 0 0 1-1.783-1.434 6.7 6.7 0 0 1-1.167-2.103A7.6 7.6 0 0 1 2.5 7.606zM8 0c1.68 0 2.867 1.577 2.867 3.285v4.427c0 1.708-1.187 3.285-2.867 3.285S5.133 9.421 5.133 7.712V3.285C5.133 1.577 6.32 0 8 0m0 1.26c-.79 0-1.607.801-1.607 2.025v4.427c0 1.224.816 2.025 1.607 2.025.79 0 1.607-.801 1.607-2.025V3.285C9.607 2.061 8.791 1.26 8 1.26"/></svg>
